source/assets/images/hex-dark.svg

<?xml version="1.0" encoding="utf-8"?>
<!-- Generator: Adobe Illustrator 19.0.0, SVG Export Plug-In . SVG Version: 6.00 Build 0)  -->
<svg version="1.1" id="Layer_1" xmlns="http://www.w3.org/2000/svg" xmlns:xlink="http://www.w3.org/1999/xlink" x="0px" y="0px"
	 viewBox="0 0 512 512" style="enable-background:new 0 0 512 512;" xml:space="preserve">
<style type="text/css">
	.st0{fill:#333333;}
</style>
<path id="XMLID_1_" class="st0" d="M63.4,122.5l172.7-99.9c12-6.9,26.8-6.9,38.8,0l172.7,99.9c12,6.9,19.4,19.7,19.4,33.6v199.9
	c0,13.8-7.4,26.6-19.4,33.6l-172.7,99.9c-12,6.9-26.8,6.9-38.8,0L63.4,389.5c-12-6.9-19.4-19.7-19.4-33.6V156.1
	C44,142.2,51.4,129.4,63.4,122.5z"/>
</svg>

<?xml version="1.0" encoding="UTF-8" standalone="no"?>
<!DOCTYPE svg PUBLIC "-//W3C//DTD SVG 1.1//EN" "http://www.w3.org/Graphics/SVG/1.1/DTD/svg11.dtd">
<svg width="100%" height="100%" viewBox="0 0 423 478" version="1.1" xmlns="http://www.w3.org/2000/svg" xmlns:xlink="http://www.w3.org/1999/xlink" xml:space="preserve" style="fill-rule:evenodd;clip-rule:evenodd;stroke-linejoin:round;stroke-miterlimit:1.41421;">
    <g id="XMLID_1_" transform="matrix(1,0,0,1,-44,-17.425)">
        <path d="M63.4,122.5L236.1,22.6C248.1,15.7 262.9,15.7 274.9,22.6L447.6,122.5C459.6,129.4 467,142.2 467,156.1L467,356C467,369.8 459.6,382.6 447.6,389.6L274.9,489.5C262.9,496.4 248.1,496.4 236.1,489.5L63.4,389.5C51.4,382.6 44,369.8 44,355.9L44,156.1C44,142.2 51.4,129.4 63.4,122.5Z" style="fill:rgb(51,51,51);fill-rule:nonzero;"/>
    </g>
</svg>
